assets/icons/copy_link.svg

<svg fill="none" height="17" viewBox="0 0 18 17" width="18" xmlns="http://www.w3.org/2000/svg"><g fill="#888"><path d="m4.07254 7.01612-2.058 2.058c-.84398.84399-1.318129 1.98868-1.318129 3.18228 0 1.1935.474149 2.3382 1.318129 3.1822.84399.844 1.98868 1.3182 3.18225 1.3182 1.19358 0 2.33827-.4742 3.18225-1.3182l2.74196-2.7435c.509-.509.8884-1.1327 1.1064-1.8187.2181-.6859.2684-1.41423.1467-2.12367-.1217-.70945-.4118-1.37936-.8459-1.9535-.4342-.57414-.9997-1.03576-1.64916-1.34611l-.879.879c-.08924.0894-.16685.18969-.231.2985.50179.14426.95725.41697 1.32136.79119.3641.37422.6242.83698.7546 1.34254.1305.50555.1267 1.0364-.0109 1.54005-.1375.5037-.4042.9627-.7736 1.3317l-2.74046 2.742c-.56292.5629-1.32641.8792-2.1225.8792s-1.55958-.3163-2.1225-.8792-.87917-1.3264-.87917-2.1225.31625-1.5596.87917-2.1225l1.1895-1.18798c-.16783-.6289-.23266-1.27935-.192-1.929z"/><path d="m6.87907 4.20857c-.50894.50901-.88835 1.13269-1.10638 1.81868-.21804.68599-.26833 1.41427-.14666 2.12372.12167.70944.41175 1.37935.8459 1.95353.43414.5741.99968 1.0357 1.64914 1.3461l1.1625-1.164c-.50858-.1364-.97229-.40432-1.34454-.77673-.37226-.37241-.63994-.83623-.77614-1.34487-.1362-.50863-.13613-1.04416.0002-1.55276.13634-.5086.40413-.97236.77648-1.34467l2.74053-2.742c.5629-.56292 1.3264-.87917 2.1225-.87917s1.5596.31625 2.1225.87917.8791 1.32641.8791 2.1225-.3162 1.55958-.8791 2.1225l-1.1895 1.188c.168.63.2325 1.2825.192 1.9305l2.058-2.058c.844-.84399 1.3181-1.98868 1.3181-3.18225 0-1.19358-.4741-2.33827-1.3181-3.18225-.844-.843986-1.9887-1.318132-3.1823-1.318132s-2.3382.474146-3.18223 1.318132z"/></g></svg>

<svg width="18" height="17" viewBox="0 0 18 17" fill="none" xmlns="http://www.w3.org/2000/svg">
<path d="M4.07254 7.01612L2.01454 9.07412C1.17056 9.91811 0.696411 11.0628 0.696411 12.2564C0.696411 13.4499 1.17056 14.5946 2.01454 15.4386C2.85853 16.2826 4.00322 16.7568 5.19679 16.7568C6.39037 16.7568 7.53506 16.2826 8.37904 15.4386L11.121 12.6951C11.63 12.1861 12.0094 11.5624 12.2274 10.8764C12.4455 10.1905 12.4958 9.46217 12.3741 8.75273C12.2524 8.04328 11.9623 7.37337 11.5282 6.79923C11.094 6.22509 10.5285 5.76347 9.87904 5.45312L9.00004 6.33212C8.9108 6.42152 8.83319 6.52181 8.76904 6.63062C9.27083 6.77488 9.72629 7.04759 10.0904 7.42181C10.4545 7.79603 10.7146 8.25879 10.845 8.76435C10.9755 9.2699 10.9717 9.80075 10.8341 10.3044C10.6966 10.8081 10.4299 11.2671 10.0605 11.6361L7.32004 14.3781C6.75712 14.941 5.99363 15.2573 5.19754 15.2573C4.40145 15.2573 3.63796 14.941 3.07504 14.3781C2.51212 13.8152 2.19587 13.0517 2.19587 12.2556C2.19587 11.4595 2.51212 10.696 3.07504 10.1331L4.26454 8.94512C4.09671 8.31622 4.03188 7.66577 4.07254 7.01612Z" fill="#888888"/>
<path d="M6.87907 4.20857C6.37013 4.71758 5.99072 5.34126 5.77269 6.02725C5.55465 6.71324 5.50436 7.44152 5.62603 8.15097C5.7477 8.86041 6.03778 9.53032 6.47193 10.1045C6.90607 10.6786 7.47161 11.1402 8.12107 11.4506L9.28357 10.2866C8.77499 10.1502 8.31128 9.88228 7.93903 9.50987C7.56677 9.13746 7.29909 8.67364 7.16289 8.165C7.02669 7.65637 7.02676 7.12084 7.16309 6.61224C7.29943 6.10364 7.56722 5.63988 7.93957 5.26757L10.6801 2.52557C11.243 1.96265 12.0065 1.6464 12.8026 1.6464C13.5987 1.6464 14.3622 1.96265 14.9251 2.52557C15.488 3.08849 15.8042 3.85198 15.8042 4.64807C15.8042 5.44416 15.488 6.20765 14.9251 6.77057L13.7356 7.95857C13.9036 8.58857 13.9681 9.24107 13.9276 9.88907L15.9856 7.83107C16.8296 6.98708 17.3037 5.84239 17.3037 4.64882C17.3037 3.45524 16.8296 2.31055 15.9856 1.46657C15.1416 0.622584 13.9969 0.148438 12.8033 0.148438C11.6097 0.148438 10.4651 0.622584 9.62107 1.46657L6.87907 4.20857Z" fill="#888888"/>
</svg>
